apps/scalable/calibre-viewer.svg

<svg xmlns="http://www.w3.org/2000/svg" style="isolation:isolate" width="256" height="256"><defs><filter id="a" width="270.648" height="254.338" x="-7.32" y="2.95" filterUnits="userSpaceOnUse"><feGaussianBlur xmlns="http://www.w3.org/2000/svg" in="SourceGraphic" stdDeviation="4.294"/><feOffset xmlns="http://www.w3.org/2000/svg" dy="4" result="pf_100_offsetBlur"/><feFlood xmlns="http://www.w3.org/2000/svg" flood-opacity=".4"/><feComposite xmlns="http://www.w3.org/2000/svg" in2="pf_100_offsetBlur" operator="in" result="pf_100_dropShadow"/><feBlend xmlns="http://www.w3.org/2000/svg" in="SourceGraphic" in2="pf_100_dropShadow"/></filter></defs><g filter="url(#a)"><linearGradient id="b" x1=".233" x2=".933" y1="-.071" y2=".995" gradientTransform="matrix(244.648 0 0 228.338 5.676 11.947)" gradientUnits="userSpaceOnUse"><stop offset="0%" stop-color="#e8e8e8"/><stop offset="100%" stop-color="#f5f5f5"/></linearGradient><path fill="url(#b)" d="M165.685 11.947c74.055 0 84.639 10.557 84.639 84.544v59.251c0 73.986-10.584 84.543-84.639 84.543h-75.37c-74.055 0-84.639-10.557-84.639-84.543V96.491c0-73.987 10.584-84.544 84.639-84.544h75.37z"/></g><path fill="#BC1938" d="M165.685 11.947c60.867 0 78.171 6.766 82.648 50.386-17.333 0-210.666.334-241.314.002 4.54-43.296 22.598-50.388 83.296-50.388h75.37z"/><path fill="#5D5D5D" d="M70.794 91.483l-20.371 53.681h-5.004v4.129h14.452v-4.129h-4.627l4.827-12.397h23.952l4.821 12.397h-6.251v4.129h20.732v-4.129h-5.72L77.228 91.483h-6.434zm1.253 9.293l10.546 27.879H61.678l10.369-27.879z"/><path fill="#E3DFD5" fill-opacity=".996" d="M111.488 95.613v4.129h99.103v-4.129h-99.103zm0 16.517v4.13h99.103v-4.13h-99.103zm0 16.441v4.129h99.103v-4.129h-99.103zm0 16.517v4.129h99.103v-4.129h-99.103zm-66.069 16.518v4.129l165.172.076v-4.129l-165.172-.076zm0 16.517v4.129h165.172v-4.129H45.419zm0 16.517v4.129h123.879v-4.129H45.419z"/><defs><filter id="c" width="155.988" height="156" x="12.45" y="67.11" filterUnits="userSpaceOnUse"><feGaussianBlur xmlns="http://www.w3.org/2000/svg" in="SourceGraphic" stdDeviation="4.294"/><feOffset xmlns="http://www.w3.org/2000/svg" dy="4" result="pf_100_offsetBlur"/><feFlood xmlns="http://www.w3.org/2000/svg" flood-opacity=".4"/><feComposite xmlns="http://www.w3.org/2000/svg" in2="pf_100_offsetBlur" operator="in" result="pf_100_dropShadow"/><feBlend xmlns="http://www.w3.org/2000/svg" in="SourceGraphic" in2="pf_100_dropShadow"/></filter></defs><g filter="url(#c)"><linearGradient id="d" x1=".502" x2=".933" y1=".138" y2=".963" gradientTransform="matrix(129.988 0 0 130 25.445 76.11)" gradientUnits="userSpaceOnUse"><stop offset="0%" stop-color="#bc1938"/><stop offset="100%" stop-color="#d2455f"/></linearGradient><path fill="url(#d)" d="M74.185 76.11c-27.005 0-48.74 21.746-48.74 48.751 0 27.006 21.735 48.752 48.74 48.752a48.591 48.591 0 0 0 30.446-10.658l43.143 43.155 7.659-7.659-43.143-43.155a48.57 48.57 0 0 0 10.646-30.435c0-27.005-21.746-48.751-48.751-48.751zm0 10.836c21.004 0 37.915 16.911 37.915 37.915 0 21.005-16.911 37.916-37.915 37.916-21.004 0-37.904-16.911-37.904-37.916 0-21.004 16.9-37.915 37.904-37.915z"/></g><g opacity=".4"><linearGradient id="e" x1=".517" x2=".517" y2="1"><stop offset="0%" stop-color="#fff"/><stop offset="12.5%" stop-opacity=".098" stop-color="#fff"/><stop offset="92.5%" stop-opacity=".098"/><stop offset="100%" stop-opacity=".498"/></linearGradient><path fill="none" stroke="url(#e)" stroke-linecap="round" stroke-linejoin="round" stroke-width="4.077" d="M165.685 11.947c74.055 0 84.639 10.557 84.639 84.544v59.251c0 73.986-10.584 84.543-84.639 84.543h-75.37c-74.055 0-84.639-10.557-84.639-84.543V96.491c0-73.987 10.584-84.544 84.639-84.544h75.37z" vector-effect="non-scaling-stroke"/></g></svg>

<svg xmlns="http://www.w3.org/2000/svg" style="isolation:isolate" width="256" height="256" viewBox="0 0 256 256">
 <defs>
  <filter id="OSTK01Omjp6QgbylovxiBTyYHXYRP0a7" width="270.648" height="254.338" x="-7.32" y="2.95" filterUnits="userSpaceOnUse">
   <feGaussianBlur xmlns="http://www.w3.org/2000/svg" in="SourceGraphic" stdDeviation="4.294"/>
   <feOffset xmlns="http://www.w3.org/2000/svg" dx="0" dy="4" result="pf_100_offsetBlur"/>
   <feFlood xmlns="http://www.w3.org/2000/svg" flood-opacity=".4"/>
   <feComposite xmlns="http://www.w3.org/2000/svg" in2="pf_100_offsetBlur" operator="in" result="pf_100_dropShadow"/>
   <feBlend xmlns="http://www.w3.org/2000/svg" in="SourceGraphic" in2="pf_100_dropShadow" mode="normal"/>
  </filter>
 </defs>
 <g filter="url(#OSTK01Omjp6QgbylovxiBTyYHXYRP0a7)">
  <linearGradient id="_lgradient_120" x1=".233" x2=".933" y1="-.071" y2=".995" gradientTransform="matrix(244.648,0,0,228.338,5.676,11.947)" gradientUnits="userSpaceOnUse">
   <stop offset="0%" style="stop-color:rgb(232,232,232)"/>
   <stop offset="100%" style="stop-color:rgb(245,245,245)"/>
  </linearGradient>
  <path fill="url(#_lgradient_120)" d="M 165.685 11.947 C 239.74 11.947 250.324 22.504 250.324 96.491 L 250.324 155.742 C 250.324 229.728 239.74 240.285 165.685 240.285 L 90.315 240.285 C 16.26 240.285 5.676 229.728 5.676 155.742 L 5.676 96.491 C 5.676 22.504 16.26 11.947 90.315 11.947 L 165.685 11.947 Z"/>
 </g>
 <g>
  <path fill="#BC1938" d="M 165.685 11.947 C 226.552 11.947 243.856 18.713 248.333 62.333 C 231 62.333 37.667 62.667 7.019 62.335 C 11.559 19.039 29.617 11.947 90.315 11.947 L 165.685 11.947 Z"/>
  <path fill="#5D5D5D" d="M 70.794 91.483 L 50.423 145.164 L 45.419 145.164 L 45.419 149.293 L 59.871 149.293 L 59.871 145.164 L 55.244 145.164 L 60.071 132.767 L 84.023 132.767 L 88.844 145.164 L 82.593 145.164 L 82.593 149.293 L 103.325 149.293 L 103.325 145.164 L 97.605 145.164 L 77.228 91.483 L 70.794 91.483 Z M 72.047 100.776 L 82.593 128.655 L 61.678 128.655 L 72.047 100.776 Z"/>
  <path fill="#E3DFD5" fill-opacity=".996" d="M 111.488 95.613 L 111.488 99.742 L 210.591 99.742 L 210.591 95.613 L 111.488 95.613 Z M 111.488 112.13 L 111.488 116.26 L 210.591 116.26 L 210.591 112.13 L 111.488 112.13 Z M 111.488 128.571 L 111.488 132.7 L 210.591 132.7 L 210.591 128.571 L 111.488 128.571 Z M 111.488 145.088 L 111.488 149.217 L 210.591 149.217 L 210.591 145.088 L 111.488 145.088 Z M 45.419 161.606 L 45.419 165.735 L 210.591 165.811 L 210.591 161.682 L 45.419 161.606 Z M 45.419 178.123 L 45.419 182.252 L 210.591 182.252 L 210.591 178.123 L 45.419 178.123 Z M 45.419 194.64 L 45.419 198.769 L 169.298 198.769 L 169.298 194.64 L 45.419 194.64 Z"/>
 </g>
 <defs>
  <filter id="O2784Tq8Lfx0jPyrlzEh7tObUi6rUOFd" width="155.988" height="156" x="12.45" y="67.11" filterUnits="userSpaceOnUse">
   <feGaussianBlur xmlns="http://www.w3.org/2000/svg" in="SourceGraphic" stdDeviation="4.294"/>
   <feOffset xmlns="http://www.w3.org/2000/svg" dx="0" dy="4" result="pf_100_offsetBlur"/>
   <feFlood xmlns="http://www.w3.org/2000/svg" flood-opacity=".4"/>
   <feComposite xmlns="http://www.w3.org/2000/svg" in2="pf_100_offsetBlur" operator="in" result="pf_100_dropShadow"/>
   <feBlend xmlns="http://www.w3.org/2000/svg" in="SourceGraphic" in2="pf_100_dropShadow" mode="normal"/>
  </filter>
 </defs>
 <g filter="url(#O2784Tq8Lfx0jPyrlzEh7tObUi6rUOFd)">
  <linearGradient id="_lgradient_121" x1=".502" x2=".933" y1=".138" y2=".963" gradientTransform="matrix(129.988,0,0,130,25.445,76.11)" gradientUnits="userSpaceOnUse">
   <stop offset="0%" style="stop-color:rgb(188,25,56)"/>
   <stop offset="100%" style="stop-color:rgb(210,69,95)"/>
  </linearGradient>
  <path fill="url(#_lgradient_121)" d="M 74.185 76.11 C 47.18 76.11 25.445 97.856 25.445 124.861 C 25.445 151.867 47.18 173.613 74.185 173.613 C 85.728 173.613 96.298 169.612 104.631 162.955 L 147.774 206.11 L 155.433 198.451 L 112.29 155.296 C 118.944 146.964 122.936 136.402 122.936 124.861 C 122.936 97.856 101.19 76.11 74.185 76.11 L 74.185 76.11 Z M 74.185 86.946 C 95.189 86.946 112.1 103.857 112.1 124.861 C 112.1 145.866 95.189 162.777 74.185 162.777 C 53.181 162.777 36.281 145.866 36.281 124.861 C 36.281 103.857 53.181 86.946 74.185 86.946 Z"/>
 </g>
 <g opacity=".4">
  <linearGradient id="_lgradient_122" x1=".517" x2=".517" y1="0" y2="1">
   <stop offset="0%" style="stop-color:rgb(255,255,255)"/>
   <stop offset="12.5%" stop-opacity=".098" style="stop-color:rgb(255,255,255)"/>
   <stop offset="92.5%" stop-opacity=".098" style="stop-color:rgb(0,0,0)"/>
   <stop offset="100%" stop-opacity=".498" style="stop-color:rgb(0,0,0)"/>
  </linearGradient>
  <path fill="none" stroke="url(#_lgradient_122)" stroke-linecap="round" stroke-linejoin="round" stroke-width="4.077" d="M 165.685 11.947 C 239.74 11.947 250.324 22.504 250.324 96.491 L 250.324 155.742 C 250.324 229.728 239.74 240.285 165.685 240.285 L 90.315 240.285 C 16.26 240.285 5.676 229.728 5.676 155.742 L 5.676 96.491 C 5.676 22.504 16.26 11.947 90.315 11.947 L 165.685 11.947 Z" vector-effect="non-scaling-stroke"/>
 </g>
</svg>
